X:1
T:Scartaglen Jig
L:1/8
Q:1/8=360
M:12/8
I:linebreak $
K:D
V:1 treble 
V:1
 A2 a aga Agf gfg | A2 a aga efg efg | A2 a aga A2 g gfe |$ f/g/af gfe d3 d3 | A2 a aga A2 g gfg | %5
 A2 a agf efg efg |$ agf gfe fed edc | BAB gfe d3 d3 || c2 A cee dff cee |$ c2 A cee dcd fed | %10
 cAA cec dfd cec | BAB gfe d3 d3 :| %12
